!!! OTL: Berkowitz473
!!! Chapter: 1
!!! Section: IV
!!! Page: 118
!!! Mode: 
!!! Encoder: DJB
**kern
*staff1
*I"Piano
=1-
*clefG2
*k[b-e-a-]
*c:
*M4/4
[4g/
8.g/L]
16f#/Jk
[4cc\
8.cc\L]
16bn\Jk
=2
4ee-\
4dd\
[4f/
8.f/L]
16en/Jk
=3
[4dd-\
8.dd-\L]
16cc\Jk
8.b-/L
16a-/Jk
8.a-/L
16f#/Jk
=4
4cc\
4bn\
4r
4c/
=5
[4b-\
8.b-/L]
16en/Jk
[4f/
8.f/L]
16Bn/Jk
=6
!!linebreak:original
8.c/L
16d/Jk
8e-/L
8f/J
[2f#/
=7
8.f#/L]
16cc/Jk
8.bn\L
16ee-\Jk
8.dd\L
16an\Jk
8.b/L
16g/Jk
=8
4cc\
4c/
2r
==
*-
